X:1
T:Love took his bow and arrow - Morley
T:#
%%score [ 1 2 { 3 | 4 } 5 ]
L:1/8
Q:1/4=105
M:4/4
K:F
V:1 treble nm="Soprano" snm="S"
V:2 treble nm="Alto" snm="A"
V:3 treble-8 nm="Tenor I" snm="T"
V:4 treble-8 
V:5 bass nm="Bass" snm="B"
V:1
 c4 c2 d2 | c4"^Love took his bow and arrow" _e4 | d8 | c8 | %4
w: Love took his|bow and|ar-|row|
 z4 z2"^Thomas Morley\n(1557-1603)" f2 |[M:4/4] e2 d2 c2 _e2 | d3 d c2 B2- | B2 A2 G4 | A8 | %9
w: And|slew his mo- ther's|spar- row, his mo\-|* ther's spar-|row.|
 c4 c2 d2 | c4 _e4 | d8 | c8 | z4 z2 f2 | e2 d2 c2 _e2 | d3 d c2 B2- | B2 A2 G4 | A4 z4 | %18
w: I know not|how it|chanc-|ed,|Per-|haps his ar- row|glanc- ed, his ar\-|* row glanc-|ed.|
 z4 z2 B2 | f_edc (d2 B2) | c4 z4 | z2 B2 Bcde | (f2 d2) c2 c2 | c2 c2 c4 |[M:3/2] c4 z4 z4 | %25
w: A-|way the wag him hi\- *|ed,|a- way the wag him|hi\- * ed, the|wag him hi-|ed.|
[M:4/4] z8 |: c8 |[M:3/2] f8 _e4 |[M:4/4] d4 d4 x4 | d8 x8 | d8 x6 | z4 g4 |[M:4/4] f4 e4 | %33
w: |Lord!|how am|I a-|pay-|ed?|My|bird is|
 d4 c2 d2- | dc c4 =B2 | c4 c2 c2 | d6 (cB) | A6 B2 | c8- | c8 |1 c8 :|2 c8 |]2 x8 |] %43
w: dead and now|* my boy is|stray- ed, and|now my *|boy is|stray\-||ed.|\-ed.||
V:2
 A4 A2 B2 | A4 G4 | G8 | G4 z4 | z4 z2 d2 |[M:4/4] c2 B2 A2 c2 | B3 B A2 G2 | F2 (F4 E2) | F8 | %9
w: Love took his|bow and|ar-|row|And|slew his mo- ther's|spar- row, his mo-|ther's spar\- *|row.|
 A4 A2 B2 | A4 G4 | G8 | G4 z4 | z4 z2 d2 | c2 B2 A2 c2 | B3 B A2 G2- | GF (F4 E2) | F2 F2 cBAG | %18
w: I know not|how it|chanc-|ed,|Per-|haps his ar- row|glanc- ed, his ar\-|* row glanc\- *|ed. A- way the wag him|
 F2 D4 G2 | F3 E DE F2 | F2 F2 F_EDC | D2 B,4 z2 | z2 B2 AGAF | (G2 F4 E2) | %24
w: hi- ed, a-|way the wag him hi-|ed, a- way the wag him|hi- ed,|a- way the wag him|hi\- * *|
[M:3/2] F2 A2 A3 G G2 ^F2 |[M:4/4] G4 G4 |: A8 |[M:3/2] A8 G4 |[M:4/4] F2 D2 (G4- x4 | %29
w: ed. And then his mo- ther|cri- ed:|Lord!|how am|I a- pay\-|
 G2 ^FE F4) x8 | G8 x6 | z8 |[M:4/4] z4 c4 | B4 A4 | G4 F4 | E4 A4 | G2 (FE) D2 E2 | F6 (ED) | %38
w: |ed?||My|bird is|dead, my|bird is|dead and * now my|boy, my *|
 C6 D2 | (E2 F2 G4) |1 A8 :|2 A8 |]2 x8 |] %43
w: boy is|stray\- * *|ed.|\-ed.||
V:3
 f4 f4- | f2 F2 G2 c2 | d8 | e4 z4 | z2 f2 e2 d2 |[M:4/4][K:treble-8] e2 e2 (f2 g2) | f2 f2 c2 d2 | %7
w: Love took|* his bow and|ar-|row|And slew his|mo- ther's spar\- *|row, and slew his|
 c2 c2 c4 | c8 | f4 f4- | f2 F2 G2 c2 | d8 | e4 z4 | z2 f2 e2 d2 | e2 e2 (f2 g2) | f2 f2 c2 d2 | %16
w: mo- ther's spar-|row.|I know|* not how it|chanc-|ed,|Per- haps his|ar- row glanc\- *|ed, per- haps his|
 c2 c2 c4 | c8 | z4 z2"^A-" B2 | Bcde f2 f2 | z4 z2 f2 | f_edc d2 B2 | F2 FG GB c2- | c2 A2 G4 | %24
w: ar- row glanc-|ed.||way the wag him hi- ed,|a-|way the wag him hi- ed,|a- way, a- way the wag|* him hi-|
[M:4/4] F2 c2 c3 c x4 |[M:4/4] =B2 c2 (c2 !courtesy!=B2) |: c4 x4 |[M:3/2] c8 x4 | %28
w: ed. And then his|mo- ther cri\- *|ed:|Lord!|
[M:3/2][K:treble-8] F8 G4 |[M:3/2] d4 d4 d8 | d8 z2 d4 | c2- x6 | x8 | %33
w: how am|I a- pay-|ed? My|bird||
[M:4/4][K:treble-8] c2 =B2 c2 c2 | F2 G2 A2 B2 | (c4 F4) | G4 A4 | B6 (AG) | F2 F2 f2 g2 | %39
w: * is dead and|now my boy is|stray\- *|ed, and|now my *|boy, and now my|
 a4 f2 (g2- |1 gf f4 e2) :|2 f8 |]2 f8 |] %43
w: boy is stray\-||ed.|\-ed.|
V:4
 c4 c2 B2 | c4 c2 (c2- | c2 =BA B4) | c6 A2 | G2 F2 G2 B2 |[M:4/4][K:treble-8] G2 G2 z2 c2 | %6
w: Love took his|bow and ar-||row And|slew his mo- ther's|spar- row, and|
 F3 G A2 D2 | (E2 F2 G4) | F8 | c4 c2 B2 | c4 c2 (c2- | c2 =BA B4) | c6 A2 | G2 F2 G2 B2 | %14
w: slew his mo- ther's|spar\- * *|row.|I know not|how it chanc\-||ed, Per-|haps his ar- row|
 G2 G2 z2 c2 | F3 G A2 D2 | (E2 F2 G4) | F6 c2 | dcBA (B2 _e2) | d2 B2 Bcdd | c4 A2 B2 | Bcde f4 | %22
w: glanc- ed, per-|haps his ar- row|glanc\- * *|ed. A-|way the wag him hi\- *|ed, a- way the wag him|hi- ed, a-|way the wag him hi-|
 d2 f2 fefd | e2 f2 g4 |[M:4/4] a2 f2 f3 e d2 c2 |[M:4/4] d4 e4 |: f8 |[M:3/2] x12 | %28
w: ed, a- way, a- way the|wag him hi-|ed. And then his mo- ther|cri- ed:|Lord!||
[M:3/2][K:treble-8] f8 B4 |[M:3/2] B4 B4 x8 | A8 x6 | =B4 _B4 | A4 G4 | %33
w: how am|I a-|pay-|ed? My|bird is|
[M:4/4][K:treble-8] d2 d2 G2 A2 | B2 B2 (c2 F2) | G2 G2 d4 | G2 g2 f2 e2 | d2 d2 d4- | %38
w: dead and now my|boy is stray\- *|ed, is stray-|ed, my bird is|dead and now|
 d2 (cB) A4- | A2 B2 c4- |1 c2 A2 G4 :|2 F8 |]2 F8 |] %43
w: * my * boy,|* my boy|* is stray-|ed.|\-ed.|
V:5
 F,4 F,2 B,,2 | F,4 C,4 | G,8 | C,6 F,2 | E,2 D,2 C,2 B,,2 |[M:4/4] C,4 F,2 C,2 | D,3 E, F,2 B,,2 | %7
w: Love took his|bow and|ar-|row And|slew his mo- ther's|spar- row, and|slew his mo- ther's|
 C,8 | F,8 | F,4 F,2 B,,2 | F,4 C,4 | G,8 | C,6 F,2 | E,2 D,2 C,2 B,,2 | C,4 F,2 C,2 | %15
w: spar-|row.|I know not|how it|chanc-|ed, Per-|haps his ar- row|glanc- ed, per-|
 D,3 E, F,2 B,,2 | C,8 | F,6 F,2 | B,A,G,F, (G,2 _E,2) | B,,4 z2 B,,2 | F,E,D,C, D,2 B,,2 | %21
w: haps his ar- row|glanc-|ed. A-|way the wag him hi\- *|ed, a-|way the wag him hi- ed,|
 z4 z2 B,,2 | B,,C,D,E, F,4 | C,8 |[M:3/2] z2 F,2 F,3 C, G,2 A,2 |[M:4/4] G,4 C,4 |: F,8 | %27
w: a-|way the wag him hi-|ed.|And then his mo- ther|cri- ed:|Lord!|
[M:3/2] D,8 _E,4 |[M:4/4] B,,6 C,2 x4 | D,8 x8 | G,,4 G,4 x6 | F,4 E,4 |[M:4/4] D,4 C,4 | %33
w: how am|I a-|pay-|ed? My|bird is|dead, and|
 D,2 B,,2 F,4 | E,4 D,4 | C,4 F,4 | B,,6 C,2 | D,6 (C,B,,) | A,,6 B,,2 | C,8 |1 F,8 :|2 F,8 |]2 %42
w: now my boy|is stray-|ed, and|now my|boy, my *|boy, is|stray-|ed.|\-ed.|
 x8 |] %43
w: |

